X:1
T:[ID 2-17]
T:[ID 2-17]
L:1/8
M:4/4
K:C
V:1 treble 
V:1
 Bezecug adade |"^onigs Quadrille\n[T:K\" g uade Td |][K:D][M:2/4] dd/d/ de | ff/f/ fg | ad'ad' | %5
 aa/b/ a/g/f/e/ | dd/d/ dd | ff/f/ fg | aa b/a/g/f/ | ee/e/ e2 :: ee e/f/g/e/ | ff f2 | %12
 c'c'c'/d'/e'/c'/ | d'd' d'2 | bbb/c'/d'/b/ | aaag | f/g/a/b/ a/g/f/e/ | dd/d/ d2 :| %18
[K:G]"^Trio" !fermata!g2 d2 | BB/c/ d2 | dgfe | e2 d2 | ccAA | BBGG | AAFF | G2 G,2 :: dd/d/de | %27
 ff/f/fg | aa/a/ab | !fermata!c'4 | ggdd | eeAA | B/c/d/e/ d/c/B/A/ | GG/G/ G2 :| %34

